nameplates/viscous.svg

<svg xmlns="http://www.w3.org/2000/svg" width="1883" height="703" fill="none"><g clip-path="url(#a)"><path fill="#fff" d="M646.848 180.347c-120.891 0-127.661 74.527-127.661 173.411 0 62.751 3.707 150.505 70.117 150.505 16.28 0 30.948-5.969 46.422-5.969 11.767 0 18.376 5.162 18.376 16.293 0 20.003-14.83 25.81-32.399 25.81-22.083 0-41.264-12.582-62.702-12.582-28.047 0-32.399 32.423-32.399 55.33 0 70.816 57.544 69.364 106.223 69.364 84.14 0 112.187-46.458 112.187-124.694 0-39.845-2.902-94.53-55.288-94.53-16.28 0-32.399 4.356-47.873 4.356-14.023 0-24.339-5.162-24.339-20.003 0-16.292 8.059-23.552 24.339-23.552 25.79 0 48.679 16.293 75.275 16.293 55.288 0 55.288-86.302 55.288-117.435 0-68.72-27.241-112.919-125.405-112.919zm280.306 169.056c28.047 0 18.376 47.265 55.288 47.265 51.578 0 51.578-54.685 51.578-95.981 0-74.527-14.83-135.019-99.612-135.019-71.568 0-140.879 18.39-140.879 107.757 0 82.592 3.708 296.815 138.622 296.815 64.959 0 95.099-45.006 95.099-87.916 0-16.292-14.83-20.648-30.301-20.648-25.146 0-33.205 25.81-57.544 25.81-34.011 0-34.011-67.106-34.011-95.174 0-18.39 2.901-42.748 21.438-42.748zM430.05 155.989c-57.544 0-70.117 33.231-70.117 124.05 0 73.881 25.79 98.884 38.363 125.501-2.901 23.551-3.707 48.716-3.707 71.622 0 47.91 5.964 135.019 53.031 135.019 30.948 0 47.872-7.42 47.872-51.62 0-49.523-2.256-98.239-2.256-147.601 0-55.33 8.059-108.563 8.059-163.893 0-46.458 0-93.078-71.567-93.078zm787.24 238.42s-1.45-.323-2.09-.645c.48.161.96.323 1.29.645zM284.658 5.323c-62.702 0-72.534 119.21-72.534 235.678 0 48.394 1.773 95.82 1.773 135.341 0 53.717-3.546 90.496-17.086 90.496s-21.438-230.354-21.438-248.26c0-16.131 3.546-41.134 3.546-55.491C178.919 66.299 173.6 0 89.299 0 4.996 0 0 69.848 0 137.116 0 293.911 42.07 287.62 54.643 349.403c11.605 58.234 30.464 276.006 127.177 276.006 111.865 0 159.415-442.642 159.415-564.594 0-35.005-20.632-55.492-56.416-55.492zM1745.02 305.042c28.05 0 52.39 21.455 79.63 21.455 61.25 0 58.19-106.305 58.19-146.956 0-104.047-56.09-112.274-165.22-112.274-87.85 0-88.49 154.215-88.49 220.031 0 60.492 7.41 139.535 67.86 139.535 14.02 0 27.24-4.355 40.62-4.355 11.12 0 18.37 8.065 18.37 18.389 0 20.648-13.21 29.52-31.75 29.52-22.08 0-41.26-15.486-63.51-15.486-29.5 0-33.85 37.586-33.85 66.461 0 75.978 61.25 74.526 109.93 74.526 93.65 0 107.03-75.978 107.03-155.021 0-40.651-3.71-88.56-53.03-88.56-14.02 0-28.05 3.71-42.07 3.71-22.08 0-24.34-8.066-24.34-22.1 0-13.228 5.16-28.875 20.63-28.875M1174.9 177.444c-106.22 0-117.99 132.921-117.99 233.258 0 100.336 2.9 292.298 113.64 292.298 129.11 0 136.52-230.354 136.52-346.983 0-105.499-19.18-178.573-132.01-178.573zm32.56 207.609v-.161c.32-.807.97-2.097.97-2.259s.16-.322.32-.484c.32-.322 1.13-1.613 1.61-2.097.65-.645 1.45-1.129 2.26-1.613.8-.484 1.77-.806 2.58-1.129h.48c.81 0 1.77-.323 2.58-.323h.32c1.94 0 3.71.484 5.32 1.452a10.3 10.3 0 0 1 3.23 3.226c.32.646.64 1.452.96 2.098.33 1.29.33 2.419 0 3.71.16.645.49 1.29.49 2.097 0 1.29-.17 2.419-.81 3.387-.32 1.13-.97 2.097-1.77 2.904-.65.645-1.29 1.129-1.94 1.613h-.16c-.8.323-1.61.645-2.25.968h-.33c-2.09.484-3.54.484-5.8 0-.81-.161-1.93-.807-2.58-.968 0 0-.32 0-.48-.161-.49-.484-1.29-.968-1.78-1.452h-.16c-.64-.645-1.13-1.452-1.61-2.097-.48-.807-.8-1.613-1.13-2.581v-.161c-.16-.807-.32-1.614-.32-2.581v-.323c0-.807.16-1.775.32-2.581zm8.06 158.57a48 48 0 0 1-.97 6.775c0 .646-.32 1.452-.48 2.097-.48 1.291-.97 2.42-1.45 3.711-.48 1.129-.97 2.419-1.61 3.548-.33.646-.65 1.13-1.13 1.775-3.39 4.678-5.8 7.582-10.8 10.647-.32.161-.65.322-.97.483-1.93.968-4.03 1.775-6.12 2.581-2.42.807-5.81 1.13-8.06 1.291h-2.42c-2.26-.323-5.64-.484-8.06-1.291-2.58-.967-5.16-1.935-7.58-3.226-2.25-1.29-4.19-3.065-6.12-4.678-1.94-1.613-3.71-4.355-5.16-6.291-.48-.645-.81-1.291-1.29-2.097-.97-2.258-2.42-4.839-2.9-7.421-.48-2.258-1.13-5.484-.97-8.065 0-2.097.49-4.356.81-6.453v-.645c0-.322.16-.484.32-.806.65-1.775 1.61-4.84 3.06-6.776 1.29-1.935 2.74-3.71 4.19-5.323.65-.806 1.29-1.613 2.1-2.581.48-.484.97-.968 1.61-1.452 1.77-1.451 4.03-3.387 6.13-4.516 2.41-1.291 4.83-2.259 7.41-3.065 1.61-.484 3.23-.646 4.84-.807s3.38-.645 5.16-.484c2.25.161 4.51.484 6.77.968.32 0 .64 0 .96.323 2.1.645 4.19 1.613 6.13 2.581.32 0 .64.322.96.484 2.26 1.29 4.2 2.903 6.13 4.678 4.03 4.032 5.8 7.743 7.74 12.905.32.645.48 1.451.64 2.258.32 2.258.65 4.517.97 6.775v2.097zm15.96-71.139c-.32 2.097-1.13 4.194-2.26 5.969-1.45 2.258-3.38 4.355-5.8 5.646s-4.84 1.936-7.58 2.097c-1.93 0-3.87-.161-5.8-.807-1.77-.645-3.71-1.451-5.32-2.419-3.71-2.581-6.93-6.292-7.9-10.808-.48-2.743-.64-5.162 0-7.905.65-2.581 1.94-4.678 3.71-6.613.32-.484.81-.807 1.13-1.13.96-.806 1.93-1.613 2.9-2.097 1.61-.806 3.38-1.613 5.16-1.935 3.54-.646 7.41-.807 10.96.645 2.42.968 4.35 1.936 6.28 3.871 1.94 1.936 2.91 4.033 4.03 6.453.33.806.33 1.774.33 2.742.32 2.259.32 4.356 0 6.614zm369.12-211.642c0-36.134-5.16-79.043-50.13-79.043-48.68 0-61.9 32.424-61.9 76.785 0 76.785 13.22 153.57 13.22 232.451 0 8.066-9.51 14.841-17.73 14.841-17.73 0-20.63-21.454-20.63-39.844 0-59.041 3.7-118.081 3.7-178.573 0-50.168-.8-101.788-60.44-101.788-42.07 0-87.04 12.582-87.04 93.077 0 51.62 12.57 99.691 48.68 132.922.8 100.336-.81 173.411 114.28 173.411 70.76 0 119.44-30.972 119.44-104.047 0-37.586-6.61-75.978-6.61-113.725 0-35.489 5.16-71.623 5.16-106.305z"/></g><defs><clipPath id="a"><path fill="#fff" d="M0 0h1883v703H0z"/></clipPath></defs></svg>

<svg width="1883" height="703" viewBox="0 0 1883 703" fill="none" xmlns="http://www.w3.org/2000/svg">
<g clip-path="url(#clip0_22600_243)">
<path d="M646.848 180.347C525.957 180.347 519.187 254.874 519.187 353.758C519.187 416.509 522.894 504.263 589.304 504.263C605.584 504.263 620.252 498.294 635.726 498.294C647.493 498.294 654.102 503.456 654.102 514.587C654.102 534.59 639.272 540.397 621.703 540.397C599.62 540.397 580.439 527.815 559.001 527.815C530.954 527.815 526.602 560.238 526.602 583.145C526.602 653.961 584.146 652.509 632.825 652.509C716.965 652.509 745.012 606.051 745.012 527.815C745.012 487.97 742.11 433.285 689.724 433.285C673.444 433.285 657.325 437.641 641.851 437.641C627.828 437.641 617.512 432.479 617.512 417.638C617.512 401.346 625.571 394.086 641.851 394.086C667.641 394.086 690.53 410.379 717.126 410.379C772.414 410.379 772.414 324.077 772.414 292.944C772.414 224.224 745.173 180.025 647.009 180.025L646.848 180.347ZM927.154 349.403C955.201 349.403 945.53 396.668 982.442 396.668C1034.02 396.668 1034.02 341.983 1034.02 300.687C1034.02 226.16 1019.19 165.668 934.408 165.668C862.84 165.668 793.529 184.058 793.529 273.425C793.529 356.017 797.237 570.24 932.151 570.24C997.11 570.24 1027.25 525.234 1027.25 482.324C1027.25 466.032 1012.42 461.676 996.949 461.676C971.803 461.676 963.744 487.486 939.405 487.486C905.394 487.486 905.394 420.38 905.394 392.312C905.394 373.922 908.295 349.564 926.832 349.564L927.154 349.403ZM430.05 155.989C372.506 155.989 359.933 189.22 359.933 280.039C359.933 353.92 385.723 378.923 398.296 405.54C395.395 429.091 394.589 454.256 394.589 477.162C394.589 525.072 400.553 612.181 447.62 612.181C478.568 612.181 495.492 604.761 495.492 560.561C495.492 511.038 493.236 462.322 493.236 412.96C493.236 357.63 501.295 304.397 501.295 249.067C501.295 202.609 501.295 155.989 429.728 155.989H430.05ZM1217.29 394.409C1217.29 394.409 1215.84 394.086 1215.2 393.764C1215.68 393.925 1216.16 394.087 1216.49 394.409C1216.81 394.409 1216.97 394.409 1217.29 394.409ZM284.658 5.32331C221.956 5.32331 212.124 124.533 212.124 241.001C212.124 289.395 213.897 336.821 213.897 376.342C213.897 430.059 210.351 466.838 196.811 466.838C183.271 466.838 175.373 236.484 175.373 218.578C175.373 202.447 178.919 177.444 178.919 163.087C178.919 66.2994 173.6 0 89.2982 0C4.99683 0 0 69.8483 0 137.116C0 293.911 42.0701 287.62 54.6428 349.403C66.2483 407.637 85.1073 625.409 181.82 625.409C293.685 625.409 341.235 182.767 341.235 60.8148C341.235 25.81 320.603 5.32331 284.819 5.32331H284.658ZM1745.02 305.042C1773.07 305.042 1797.41 326.497 1824.65 326.497C1885.9 326.497 1882.84 220.192 1882.84 179.541C1882.84 75.4943 1826.75 67.2673 1717.62 67.2673C1629.77 67.2673 1629.13 221.482 1629.13 287.298C1629.13 347.79 1636.54 426.833 1696.99 426.833C1711.01 426.833 1724.23 422.478 1737.61 422.478C1748.73 422.478 1755.98 430.543 1755.98 440.867C1755.98 461.515 1742.77 470.387 1724.23 470.387C1702.15 470.387 1682.97 454.901 1660.72 454.901C1631.22 454.901 1626.87 492.487 1626.87 521.362C1626.87 597.34 1688.12 595.888 1736.8 595.888C1830.45 595.888 1843.83 519.91 1843.83 440.867C1843.83 400.216 1840.12 352.307 1790.8 352.307C1776.78 352.307 1762.75 356.017 1748.73 356.017C1726.65 356.017 1724.39 347.951 1724.39 333.917C1724.39 320.689 1729.55 305.042 1745.02 305.042ZM1174.9 177.444C1068.68 177.444 1056.91 310.365 1056.91 410.702C1056.91 511.038 1059.81 703 1170.55 703C1299.66 703 1307.07 472.646 1307.07 356.017C1307.07 250.518 1287.89 177.444 1175.06 177.444H1174.9ZM1207.46 385.053C1207.46 385.053 1207.46 385.053 1207.46 384.892C1207.78 384.085 1208.43 382.795 1208.43 382.633C1208.43 382.472 1208.59 382.311 1208.75 382.149C1209.07 381.827 1209.88 380.536 1210.36 380.052C1211.01 379.407 1211.81 378.923 1212.62 378.439C1213.42 377.955 1214.39 377.633 1215.2 377.31C1215.2 377.31 1215.52 377.31 1215.68 377.31C1216.49 377.31 1217.45 376.987 1218.26 376.987C1218.26 376.987 1218.42 376.987 1218.58 376.987C1220.52 376.987 1222.29 377.471 1223.9 378.439C1225.19 379.246 1226.32 380.375 1227.13 381.665C1227.45 382.311 1227.77 383.117 1228.09 383.763C1228.42 385.053 1228.42 386.182 1228.09 387.473C1228.25 388.118 1228.58 388.763 1228.58 389.57C1228.58 390.86 1228.41 391.989 1227.77 392.957C1227.45 394.087 1226.8 395.054 1226 395.861C1225.35 396.506 1224.71 396.99 1224.06 397.474C1224.06 397.474 1224.06 397.474 1223.9 397.474C1223.1 397.797 1222.29 398.119 1221.65 398.442C1221.65 398.442 1221.65 398.442 1221.32 398.442C1219.23 398.926 1217.78 398.926 1215.52 398.442C1214.71 398.281 1213.59 397.635 1212.94 397.474C1212.94 397.474 1212.62 397.474 1212.46 397.313C1211.97 396.829 1211.17 396.345 1210.68 395.861C1210.68 395.861 1210.68 395.861 1210.52 395.861C1209.88 395.216 1209.39 394.409 1208.91 393.764C1208.43 392.957 1208.11 392.151 1207.78 391.183C1207.78 391.183 1207.78 391.183 1207.78 391.022C1207.62 390.215 1207.46 389.408 1207.46 388.441C1207.46 388.441 1207.46 388.279 1207.46 388.118C1207.46 387.311 1207.62 386.343 1207.78 385.537L1207.46 385.053ZM1215.52 543.623C1215.36 545.882 1215.04 548.14 1214.55 550.398C1214.55 551.044 1214.23 551.85 1214.07 552.495C1213.59 553.786 1213.1 554.915 1212.62 556.206C1212.14 557.335 1211.65 558.625 1211.01 559.754C1210.68 560.4 1210.36 560.884 1209.88 561.529C1206.49 566.207 1204.08 569.111 1199.08 572.176C1198.76 572.337 1198.43 572.498 1198.11 572.659C1196.18 573.627 1194.08 574.434 1191.99 575.24C1189.57 576.047 1186.18 576.37 1183.93 576.531C1183.12 576.531 1182.32 576.531 1181.51 576.531C1179.25 576.208 1175.87 576.047 1173.45 575.24C1170.87 574.273 1168.29 573.305 1165.87 572.014C1163.62 570.724 1161.68 568.949 1159.75 567.336C1157.81 565.723 1156.04 562.981 1154.59 561.045C1154.11 560.4 1153.78 559.754 1153.3 558.948C1152.33 556.69 1150.88 554.109 1150.4 551.527C1149.92 549.269 1149.27 546.043 1149.43 543.462C1149.43 541.365 1149.92 539.106 1150.24 537.009C1150.24 536.848 1150.24 536.525 1150.24 536.364C1150.24 536.042 1150.4 535.88 1150.56 535.558C1151.21 533.783 1152.17 530.718 1153.62 528.782C1154.91 526.847 1156.36 525.072 1157.81 523.459C1158.46 522.653 1159.1 521.846 1159.91 520.878C1160.39 520.394 1160.88 519.91 1161.52 519.426C1163.29 517.975 1165.55 516.039 1167.65 514.91C1170.06 513.619 1172.48 512.651 1175.06 511.845C1176.67 511.361 1178.29 511.199 1179.9 511.038C1181.51 510.877 1183.28 510.393 1185.06 510.554C1187.31 510.715 1189.57 511.038 1191.83 511.522C1192.15 511.522 1192.47 511.522 1192.79 511.845C1194.89 512.49 1196.98 513.458 1198.92 514.426C1199.24 514.426 1199.56 514.748 1199.88 514.91C1202.14 516.2 1204.08 517.813 1206.01 519.588C1210.04 523.62 1211.81 527.331 1213.75 532.493C1214.07 533.138 1214.23 533.944 1214.39 534.751C1214.71 537.009 1215.04 539.268 1215.36 541.526C1215.36 541.849 1215.36 542.171 1215.36 542.494C1215.36 542.817 1215.36 543.301 1215.36 543.623H1215.52ZM1231.48 472.484C1231.16 474.581 1230.35 476.678 1229.22 478.453C1227.77 480.711 1225.84 482.808 1223.42 484.099C1221 485.389 1218.58 486.035 1215.84 486.196C1213.91 486.196 1211.97 486.035 1210.04 485.389C1208.27 484.744 1206.33 483.938 1204.72 482.97C1201.01 480.389 1197.79 476.678 1196.82 472.162C1196.34 469.419 1196.18 467 1196.82 464.257C1197.47 461.676 1198.76 459.579 1200.53 457.644C1200.85 457.16 1201.34 456.837 1201.66 456.514C1202.62 455.708 1203.59 454.901 1204.56 454.417C1206.17 453.611 1207.94 452.804 1209.72 452.482C1213.26 451.836 1217.13 451.675 1220.68 453.127C1223.1 454.095 1225.03 455.063 1226.96 456.998C1228.9 458.934 1229.87 461.031 1230.99 463.451C1231.32 464.257 1231.32 465.225 1231.32 466.193C1231.64 468.452 1231.64 470.549 1231.32 472.807L1231.48 472.484ZM1600.6 260.842C1600.6 224.708 1595.44 181.799 1550.47 181.799C1501.79 181.799 1488.57 214.223 1488.57 258.584C1488.57 335.369 1501.79 412.154 1501.79 491.035C1501.79 499.101 1492.28 505.876 1484.06 505.876C1466.33 505.876 1463.43 484.422 1463.43 466.032C1463.43 406.991 1467.13 347.951 1467.13 287.459C1467.13 237.291 1466.33 185.671 1406.69 185.671C1364.62 185.671 1319.65 198.253 1319.65 278.748C1319.65 330.368 1332.22 378.439 1368.33 411.67C1369.13 512.006 1367.52 585.081 1482.61 585.081C1553.37 585.081 1602.05 554.109 1602.05 481.034C1602.05 443.448 1595.44 405.056 1595.44 367.309C1595.44 331.82 1600.6 295.686 1600.6 261.004V260.842Z" fill="white"/>
</g>
<defs>
<clipPath id="clip0_22600_243">
<rect width="1883" height="703" fill="white"/>
</clipPath>
</defs>
</svg>
